X:43
T:Padraig O'Keeffes
R:slide
D:Maire O'Keefe
Z:id:hn-slide-43
M:6/8
K:G
BGA EGD|~E3 DGA|BGA EGD|c3 B2A|BGA EGD|~E3 D2E|GBA GBA|1 G3 G2A:|2 GFE D2D||
|:G2G B2d|e/f/ge d2B|G2G B2d|e3 g3|G2G B2d|e/f/ge d2B|BAG EDE|c3 B2A:|
